svgs/thin/scanner-gun.svg

<svg xmlns="http://www.w3.org/2000/svg" viewBox="0 0 576 512"><!--! Font Awesome Pro 6.5.1 by @fontawesome - https://fontawesome.com License - https://fontawesome.com/license (Commercial License) Copyright 2023 Fonticons, Inc. --><path d="M112 48c-53 0-96 43-96 96s43 96 96 96H253.4 272h32c17.7 0 32-14.3 32-32V80c0-17.7-14.3-32-32-32H112zM81.1 251.7C34.3 238.3 0 195.1 0 144C0 82.1 50.1 32 112 32H304c26.5 0 48 21.5 48 48V208c0 26.5-21.5 48-48 48H262.5L144.4 454.9c-13.5 22.7-42.8 30.3-65.6 16.9L25.5 440.4C2.6 426.9-5 397.4 8.5 374.6L81.1 251.7zM243.9 256H112 97.1L22.2 382.7c-9 15.2-3.9 34.9 11.3 43.9L86.9 458c15.2 8.9 34.7 3.9 43.7-11.2L243.9 256zM424 32H568c4.4 0 8 3.6 8 8s-3.6 8-8 8H424c-4.4 0-8-3.6-8-8s3.6-8 8-8zm-8 56c0-4.4 3.6-8 8-8H568c4.4 0 8 3.6 8 8s-3.6 8-8 8H424c-4.4 0-8-3.6-8-8zm0 48c0-4.4 3.6-8 8-8H568c4.4 0 8 3.6 8 8s-3.6 8-8 8H424c-4.4 0-8-3.6-8-8zm8 56H568c4.4 0 8 3.6 8 8s-3.6 8-8 8H424c-4.4 0-8-3.6-8-8s3.6-8 8-8zm-8 88c0-4.4 3.6-8 8-8H568c4.4 0 8 3.6 8 8s-3.6 8-8 8H424c-4.4 0-8-3.6-8-8zm8 40H568c4.4 0 8 3.6 8 8s-3.6 8-8 8H424c-4.4 0-8-3.6-8-8s3.6-8 8-8zm-8 64c0-4.4 3.6-8 8-8H568c4.4 0 8 3.6 8 8s-3.6 8-8 8H424c-4.4 0-8-3.6-8-8zm8 80H568c4.4 0 8 3.6 8 8s-3.6 8-8 8H424c-4.4 0-8-3.6-8-8s3.6-8 8-8z"/></svg>

<svg xmlns="http://www.w3.org/2000/svg" viewBox="0 0 576 512"><!--! Font Awesome Pro 6.1.1 by @fontawesome - https://fontawesome.com License - https://fontawesome.com/license (Commercial License) Copyright 2022 Fonticons, Inc. --><path d="M81.1 251.7C34.27 238.3 0 195.1 0 144C0 82.14 50.14 32 112 32H304C330.5 32 352 53.49 352 80V208C352 234.5 330.5 256 304 256H262.5L144.4 454.9C130.9 477.6 101.6 485.2 78.8 471.8L25.46 440.4C2.574 426.9-5.037 397.4 8.468 374.6L81.1 251.7zM16 144C16 197 58.98 240 112 240H304C321.7 240 336 225.7 336 208V80C336 62.33 321.7 48 304 48H112C58.98 48 16 90.98 16 144zM243.9 256H97.13L22.24 382.7C13.24 397.1 18.31 417.6 33.57 426.6L86.91 457.1C102.1 466.9 121.7 461.9 130.6 446.7L243.9 256zM568 32C572.4 32 576 35.58 576 40C576 44.42 572.4 48 568 48H424C419.6 48 416 44.42 416 40C416 35.58 419.6 32 424 32H568zM416 88C416 83.58 419.6 80 424 80H568C572.4 80 576 83.58 576 88C576 92.42 572.4 96 568 96H424C419.6 96 416 92.42 416 88zM416 136C416 131.6 419.6 128 424 128H568C572.4 128 576 131.6 576 136C576 140.4 572.4 144 568 144H424C419.6 144 416 140.4 416 136zM568 192C572.4 192 576 195.6 576 200C576 204.4 572.4 208 568 208H424C419.6 208 416 204.4 416 200C416 195.6 419.6 192 424 192H568zM416 280C416 275.6 419.6 272 424 272H568C572.4 272 576 275.6 576 280C576 284.4 572.4 288 568 288H424C419.6 288 416 284.4 416 280zM568 320C572.4 320 576 323.6 576 328C576 332.4 572.4 336 568 336H424C419.6 336 416 332.4 416 328C416 323.6 419.6 320 424 320H568zM416 384C416 379.6 419.6 376 424 376H568C572.4 376 576 379.6 576 384C576 388.4 572.4 392 568 392H424C419.6 392 416 388.4 416 384zM568 464C572.4 464 576 467.6 576 472C576 476.4 572.4 480 568 480H424C419.6 480 416 476.4 416 472C416 467.6 419.6 464 424 464H568z"/></svg>
